<?xml version="1.0" encoding="UTF-8"?>
<map version="1.10" tiledversion="1.12.2" orientation="orthogonal" renderorder="right-down" width="40" height="23" tilewidth="16" tileheight="16" infinite="0" nextlayerid="6" nextobjectid="32">
 <editorsettings>
  <export target="forest.lua" format="lua"/>
 </editorsettings>
 <tileset firstgid="1" name="Trees" tilewidth="16" tileheight="16" tilecount="256" columns="16">
  <image source="gentle forest v02.png" width="256" height="256"/>
 </tileset>
 <layer id="1" name="Ground" width="40" height="23">
  <data encoding="csv">
34,34,34,34,34,34,34,34,34,34,34,34,34,34,34,34,34,34,34,34,34,34,34,34,34,34,34,34,34,34,34,34,34,34,34,34,34,34,34,34,
34,34,34,34,34,34,34,34,34,34,34,34,34,34,34,34,34,34,34,34,34,34,34,34,34,34,34,34,34,34,34,34,34,34,34,34,34,34,34,34,
34,34,34,34,34,34,34,34,34,34,34,34,34,34,34,34,34,34,34,34,34,34,34,34,34,34,34,34,34,34,34,34,34,34,34,34,34,34,34,34,
34,34,34,34,34,34,34,34,34,34,34,34,34,34,34,34,34,34,34,34,34,34,34,34,34,34,34,34,34,34,34,34,34,34,34,34,34,34,34,34,
34,34,34,34,34,34,34,34,34,34,34,34,34,34,34,34,34,34,34,34,34,34,34,34,34,34,34,34,34,34,34,34,34,34,34,34,34,34,34,34,
34,34,34,34,34,34,34,34,34,34,34,34,34,34,34,34,34,34,34,34,34,34,34,34,34,34,34,34,34,34,34,34,34,34,34,34,34,34,34,34,
34,34,34,34,34,34,34,34,34,34,34,34,34,34,34,34,34,34,34,34,34,34,34,34,34,34,34,34,34,34,34,34,34,34,34,34,34,34,34,34,
34,34,34,34,34,34,34,34,34,34,34,34,34,34,34,34,34,34,34,34,34,34,34,34,34,34,34,34,34,34,34,34,34,34,34,34,34,34,34,34,
34,34,34,34,34,34,34,34,34,34,34,34,34,34,34,34,34,34,34,34,34,34,34,34,34,34,34,34,34,34,34,34,34,34,34,34,34,34,34,34,
34,34,34,34,34,34,34,34,34,34,34,34,34,34,34,34,34,34,34,34,34,34,34,34,34,34,34,34,34,34,34,34,34,34,34,34,34,34,34,34,
34,34,34,34,34,34,34,34,34,34,34,34,34,34,34,34,34,34,34,34,34,34,34,34,34,34,34,34,34,34,34,34,34,34,34,34,34,34,34,34,
34,34,34,34,34,34,34,34,34,34,34,34,34,34,34,34,34,34,34,34,34,34,34,34,34,34,34,34,34,34,34,34,34,34,34,34,34,34,34,34,
34,34,34,34,34,34,34,34,34,34,34,34,34,34,34,34,34,34,34,34,34,34,34,34,34,34,34,34,34,34,34,34,34,34,34,34,34,34,34,34,
34,34,34,34,34,34,34,34,34,34,34,34,34,34,34,34,34,34,34,34,34,34,34,34,34,34,34,34,34,34,34,34,34,34,34,34,34,34,34,34,
34,34,34,34,34,34,34,34,34,34,34,34,34,34,34,34,34,34,34,34,34,34,34,34,34,34,34,34,34,34,34,34,34,34,34,34,34,21,34,34,
34,34,34,34,34,34,34,34,34,34,34,34,34,34,34,34,34,34,34,34,34,34,34,34,34,34,34,34,34,34,34,34,34,34,21,21,21,21,21,21,
34,34,34,34,34,34,34,34,34,34,34,34,34,34,34,34,34,34,34,34,34,34,34,34,34,34,34,34,34,34,34,34,34,34,21,21,21,21,21,21,
34,34,34,34,34,34,34,34,34,34,34,34,34,34,34,34,34,34,34,34,34,34,34,34,34,34,34,34,34,34,34,34,34,34,34,34,34,34,34,21,
34,34,34,34,34,34,34,34,34,34,34,34,34,34,34,34,34,34,34,34,34,34,34,34,34,34,34,34,34,34,34,34,34,34,34,34,34,34,34,34,
34,34,34,34,34,34,34,34,34,34,34,34,34,34,34,34,34,34,34,34,34,34,34,34,34,34,34,34,34,34,34,34,34,34,34,34,34,34,34,34,
34,34,34,34,34,34,34,34,34,34,34,34,34,34,34,34,34,34,34,34,34,34,34,34,34,34,34,34,34,34,34,34,34,34,34,34,34,34,34,34,
34,34,34,34,34,34,34,34,34,34,34,34,34,34,34,34,34,34,34,34,34,34,34,34,34,34,34,34,34,34,34,34,34,34,34,34,34,34,34,34,
34,34,34,34,34,34,34,34,34,34,34,34,34,34,34,34,34,34,34,34,34,34,34,34,34,34,34,34,34,34,34,34,34,34,34,34,34,34,34,34
</data>
 </layer>
 <layer id="4" name="Trees" width="40" height="23">
  <data encoding="csv">
12,13,14,15,16,0,0,0,0,0,12,13,14,15,16,0,0,0,0,0,12,13,14,15,16,0,0,0,0,12,13,14,15,16,0,0,0,0,0,0,
28,29,30,31,32,0,0,0,0,0,28,29,30,31,32,12,13,14,15,16,28,29,30,31,32,0,0,0,0,28,29,30,31,32,0,12,13,14,15,16,
44,45,46,47,48,12,13,14,15,16,44,45,46,47,48,28,29,30,31,32,44,45,46,47,12,13,14,15,16,44,45,46,47,48,0,28,29,30,31,32,
60,61,62,63,64,28,29,30,31,32,60,61,62,63,64,44,45,46,47,48,60,61,62,63,28,29,30,31,32,60,61,62,63,64,0,44,45,46,47,48,
76,77,78,79,80,44,45,46,47,48,76,77,78,79,80,60,61,62,63,64,76,77,78,79,44,45,46,47,48,76,77,78,79,80,0,60,61,62,63,64,
87,88,0,0,0,60,61,62,63,64,0,0,0,0,0,76,77,78,79,80,0,0,0,0,60,61,62,63,64,0,0,0,0,0,0,76,77,78,79,80,
103,104,0,0,0,76,77,78,79,80,0,0,0,0,0,0,0,0,0,0,0,0,0,0,76,77,78,79,80,0,0,0,0,0,0,0,0,0,0,0,
55,56,57,0,0,0,0,0,0,0,0,0,0,0,0,0,0,0,0,0,0,0,0,0,0,0,0,0,0,0,0,0,0,0,0,0,0,0,0,0,
71,72,0,0,0,0,0,0,0,0,0,0,0,0,57,57,0,0,0,0,0,0,0,0,0,0,0,0,0,0,0,0,0,0,0,0,0,0,0,0,
87,88,0,0,0,0,20,0,0,0,0,0,0,0,0,0,0,0,0,0,0,0,0,0,0,0,0,0,0,0,0,0,0,0,0,57,0,0,57,0,
103,104,0,0,0,0,0,0,0,0,0,0,0,0,0,0,0,0,0,0,20,0,0,0,0,20,0,0,0,0,0,0,0,0,0,0,0,0,0,0,
55,56,0,0,0,0,0,0,0,0,57,0,0,0,0,0,0,0,0,0,0,0,0,0,0,0,0,0,0,0,0,0,0,0,0,0,0,0,0,0,
71,72,0,0,0,0,0,0,0,0,0,0,0,0,0,0,0,0,0,0,0,0,0,0,0,0,0,0,0,0,0,0,0,0,0,0,0,0,0,0,
87,88,0,0,0,0,0,0,0,0,0,0,0,0,0,20,0,0,0,0,0,0,0,0,0,0,0,0,0,0,0,0,0,0,0,0,0,0,0,0,
103,104,0,0,0,0,0,20,0,0,0,0,0,0,0,0,0,0,0,0,0,0,0,0,0,0,0,0,57,0,0,0,0,0,0,0,0,35,0,0,
55,56,0,0,0,0,0,0,0,0,0,0,0,0,0,0,0,0,0,0,0,0,0,0,0,0,0,0,0,0,0,0,0,0,0,35,0,57,0,57,
71,72,0,0,0,0,0,0,0,0,0,12,13,14,15,16,0,0,0,0,0,0,0,0,0,0,0,0,0,0,0,0,0,0,0,0,0,0,0,0,
12,13,14,15,16,0,0,0,0,0,0,28,29,30,31,32,0,0,0,0,0,12,13,14,15,16,0,0,0,0,0,0,0,0,0,12,13,14,15,16,
28,29,30,31,32,0,12,13,14,15,16,44,45,46,47,48,12,13,14,15,16,28,29,30,31,32,12,13,14,15,16,12,13,14,15,28,29,30,31,32,
44,45,46,47,48,0,28,29,30,31,32,60,61,62,63,64,28,29,30,31,32,44,45,46,47,48,28,29,30,31,32,28,29,30,31,44,45,46,47,48,
60,61,62,63,64,0,44,45,46,47,48,76,77,78,79,80,44,45,46,47,48,60,61,62,63,64,44,45,46,47,48,44,45,46,47,60,61,62,63,64,
76,77,78,79,80,0,60,61,62,63,64,0,0,0,0,0,60,61,62,63,64,76,77,78,79,80,60,61,62,63,64,60,61,62,63,76,77,78,79,80,
0,0,0,0,0,0,76,77,78,79,80,0,0,0,0,0,76,77,78,79,80,0,0,0,0,0,76,77,78,79,80,76,77,78,79,92,35,94,35,96
</data>
 </layer>
 <objectgroup id="5" name="Collisions" visible="0">
  <properties>
   <property name="collidable" type="bool" value="true"/>
  </properties>
  <object id="9" x="4" y="3" width="67" height="74"/>
  <object id="13" x="77" y="0" width="78" height="118"/>
  <object id="14" x="161" y="-1" width="81" height="83"/>
  <object id="15" x="246" y="0" width="73" height="100"/>
  <object id="16" x="325" y="-1" width="63" height="85"/>
  <object id="17" x="396" y="0" width="69" height="123"/>
  <object id="18" x="471" y="0" width="168" height="95"/>
  <object id="20" x="2" y="270" width="92" height="98"/>
  <object id="22" x="100" y="279" width="77" height="89"/>
  <object id="23" x="179" y="262" width="80" height="107"/>
  <object id="24" x="261" y="279" width="75" height="89"/>
  <object id="26" x="344" y="267" width="69" height="96"/>
  <object id="27" x="420" y="282" width="139" height="86"/>
  <object id="28" x="563" y="269" width="76" height="100"/>
  <object id="31" x="4" y="79" width="27" height="188"/>
 </objectgroup>
 <objectgroup id="3" name="Spawns" locked="1">
  <object id="5" x="318" y="177">
   <properties>
    <property name="type" value="wendy_spawn"/>
   </properties>
  </object>
  <object id="8" x="10" y="175">
   <properties>
    <property name="type" value="glitch_spawn"/>
   </properties>
  </object>
 </objectgroup>
</map>
